X:1
T:Title
%%score { ( 1 3 ) | ( 2 4 ) }
L:1/8
M:3/4
K:Bb
V:1 treble nm="Grand Piano"
V:3 treble 
V:2 bass 
V:4 bass 
V:1
 z2 z2[Q:1/4=110] [DB][Ec] | [Fd]3 [Fd] [Fd]2 | [Fd]2 [Fc]2 [B,FB]2 | [B,GB]3 [B,GB] [B,GB]2 | %4
 [EGB]2 [B,FA]2 [B,EG]2 | [B,F]2 [B,EG]2 [EFA]2 | [DFB]2 c2 d2 | d2 c2 z =E | c4 [DB][Ec] | %9
 [Fd]3 [Fd] [Fd]2 | [Fd]2 [EFc]2 [DFB]2 | [EGB]3 [EGB] [EGB]2 | [EGB]2 [B,FA]2 [B,EG]2 | %13
 [B,DF]2 [B,EG]2 [EFA]2 | [DFB]2 c2 d2 | [Ge]2 [Fd]2 [Ec]2 |[M:2/4] [DB]4 |[M:1/4] AB | %18
[M:3/4] c3 d e2 | [Fd]2 [DFB]2 [B,FB]2 | c3 d e2 | [Fd]2 [DFB]2 [B,FB]2 | [B,GB]3 [B,FA] [B,EG]2 | %23
 [B,DF]2 [B,FB]2 c2 | d2 e2 d2 | c4 F2 | [DB]4 z2 | d>c [B,DB]2 [B,F]2 | [Fc]4 z2 | z2 z2 c2 | %30
 [Ff]2 [Fd]2 [B,_AB]2 | [B,GB]2 [B,EG]2 [B,EG]2 | [B,F]2 [DFB]2 [Fd]2 | c4 z E | [DB]4 z2 | %35
 d>c [B,DB]2 [B,F]2 | [Fc]4 z2 | e>d c2 [Fc]2 | [Ff]2 [Fd]2 [_AB]2 | [GB]2 [EG]2 [FB]2 | %40
 [Ee]2 [Fd]2 [Ec]2 |[M:2/4] [DB]4 |] %42
V:2
 z2 z2 [B,,B,]2 | [B,,B,]3 [B,,B,] [B,,B,]2 | [B,,B,]2 [C,A,]2 D,2 | E,3 E, E,2 | E,2 E,2 E,2 | %5
 D,2 E,2 C,2 | B,,2[K:treble] [F,A,F]2 [B,F]2 | z2 z2 .[DF]2 | [F,A,F]4 [B,,B,][B,,B,] | %9
 [B,,B,]3 [B,,B,] [B,,B,]2 | B,2 B,,2 B,,2 | E,3 E, E,2 | E,2 E,2 E,2 | B,,2 E,2 C,2 | %14
 B,,2[K:treble] [F,A,F]2 [B,F]2 | [E,B,]2 [F,B,]2 [F,A,]2 |[M:2/4] [B,,B,]4 |[M:1/4] [F,F]-[F,DF] | %18
[M:3/4] [F,EF]3 [F,DF] [F,CF]2 | [B,,B,]2 B,,2 D,2 | [F,A,F]3 [F,B,F] [F,CF]2 | [B,,B,]2 B,,2 D,2 | %22
 E,3 E, E,2 | B,,2 D,2[K:treble] [F,A,F]2 | [B,F]2 [A,CF]2 [B,F]2 | [F,A,F]4[K:bass] [F,A,]2 | %26
 [B,,B,]2 B,,2[K:treble] [F,A,F]2 | B,2[K:bass] z2 z2 | [F,A,]2 F,2 [F,B,F]2 | C2 z2 z2 | %30
 [D,B,]2 [B,,B,]2 D,2 | E,2 E,2 E,2 | D,2 B,,2 [B,,B,]2 | [F,A,F]4 [F,A,]2 | %34
 [B,,B,]2 B,,2[K:treble] [F,A,F]2 | B,2[K:bass] z2 z2 | [F,A,]2 F,2 [F,B,F]2 | C2 z2 z2 | %38
 [D,B,]2 [B,,B,]2 [D,B,]2 | [E,B,]2 [E,B,]2 [D,B,]2 | [C,G,]2 [F,B,]2 [F,A,]2 |[M:2/4] [B,,B,]4 |] %42
V:3
 x6 | x6 | x6 | x6 | x6 | x6 | x6 | z2 z2 B2 | x6 | x6 | x6 | x6 | x6 | x6 | x6 | x6 |[M:2/4] x4 | %17
[M:1/4] x2 |[M:3/4] x6 | x6 | x6 | x6 | x6 | x6 | x6 | x6 | z2 B,2 c2 | x6 | z2 A,2 d2 | %29
 e>d c2 z E, | x6 | x6 | x6 | z2 z2 F2 | z2 B,2 c2 | x6 | z2 A,2 d2 | x6 | x6 | x6 | x6 | %41
[M:2/4] x4 |] %42
V:4
 x6 | x6 | x6 | x6 | x6 | x6 | x2[K:treble] x4 | [B,F]2 [A,CF]2 G,-[G,B,] | x6 | x6 | x6 | x6 | %12
 x6 | x6 | x2[K:treble] x4 | x6 |[M:2/4] x4 |[M:1/4] C z |[M:3/4] x6 | x6 | x6 | x6 | x6 | %23
 x4[K:treble] x2 | x6 | x4[K:bass] x2 | x4[K:treble] x2 | F>E[K:bass] B,,2 D,2 | x6 | %29
 [F,F]->[F,B,F] [F,A,F]2 .[F,A,F]2 | x6 | x6 | x6 | x6 | x4[K:treble] x2 | F>E[K:bass] B,,2 D,2 | %36
 x6 | [F,F]->[F,B,F] [F,A,F]2 [E,A,]2 | x6 | x6 | x6 |[M:2/4] x4 |] %42

